X: 1
T:Amazing Grace  "CCPB Sep-1995"
M:3/4
L:1/8
Q:80
C:Trad.
S:Hymn
K:HP
[| {g}Ad{gdc}d2-d2|
{g}fe/2d/2{g}f2-f2|
{g}fe{Gdc}d2-d2|  !
{e}B2{G}A2-A2|
{g}Ad{gdc}d2-d2|
{g}fe/2d/2{g}f2-f2|  !
{g}ef{ag}a2-a2|
-a2{GdG}a2-a2|] [|
{fg}fa{g}a2-a2|  !
fe/2d/2{g}f2-f2|
{g}fe{Gdc}d2-d2|
{e}B2{G}A2-A2|1  !
{g}Ad{gdc}d2-d2|
{g}fe/2d/2{g}f2-f2|
e2{Gdc}d2-d2|  !
-d2{gdc}d2-d2:|2
{g}Ad{gdc}d2-d2|
{g}fe/2d/2{g}f2-f2|  !
e2{gef}e2-e2|
-e2{Gdc}d2-d2|]
